docs/assets/img/details/zoom-in(1).svg

<?xml version="1.0" encoding="UTF-8"?>
<svg width="39px" height="40px" viewBox="0 0 39 40" version="1.1" xmlns="http://www.w3.org/2000/svg" xmlns:xlink="http://www.w3.org/1999/xlink">
    <title>zoom-in(1)</title>
    <g id="Welcome" stroke="none" stroke-width="1" fill="none" fill-rule="evenodd">
        <g id="lpw-featured-development-detailed-page-1.0" transform="translate(-1129.000000, -3965.000000)" fill="#000000" fill-rule="nonzero">
            <g id="zoom-in(1)" transform="translate(1129.000000, 3965.000000)">
                <path d="M21.73725,15.0943396 L17.23725,15.0943396 L17.23725,10.5660377 C17.23725,10.149434 16.90125,9.81132075 16.48725,9.81132075 C16.07325,9.81132075 15.73725,10.149434 15.73725,10.5660377 L15.73725,15.0943396 L11.23725,15.0943396 C10.82325,15.0943396 10.48725,15.4324528 10.48725,15.8490566 C10.48725,16.2656604 10.82325,16.6037736 11.23725,16.6037736 L15.73725,16.6037736 L15.73725,21.1320755 C15.73725,21.5486792 16.07325,21.8867925 16.48725,21.8867925 C16.90125,21.8867925 17.23725,21.5486792 17.23725,21.1320755 L17.23725,16.6037736 L21.73725,16.6037736 C22.15125,16.6037736 22.48725,16.2656604 22.48725,15.8490566 C22.48725,15.4324528 22.15125,15.0943396 21.73725,15.0943396 Z" id="Path"></path>
                <path d="M38.778,38.6966038 L27.63375,27.0339623 C30.47625,24.165283 32.23725,20.210566 32.23725,15.8490566 C32.23725,7.10943396 25.17225,0 16.48725,0 C7.80225,0 0.73725,7.10943396 0.73725,15.8490566 C0.73725,24.5886792 7.80225,31.6981132 16.48725,31.6981132 C20.2995,31.6981132 23.79825,30.3267925 26.52525,28.0513208 L37.6965,39.7426415 C37.8435,39.8973585 38.04,39.9743396 38.23725,39.9743396 C38.42475,39.9743396 38.6115,39.9041509 38.757,39.7637736 C39.0555,39.474717 39.0645,38.9969811 38.778,38.6966038 Z M2.23725,15.8490566 C2.23725,7.94188679 8.6295,1.50943396 16.48725,1.50943396 C24.345,1.50943396 30.73725,7.94188679 30.73725,15.8490566 C30.73725,23.7562264 24.345,30.1886792 16.48725,30.1886792 C8.6295,30.1886792 2.23725,23.7562264 2.23725,15.8490566 Z" id="Shape"></path>
            </g>
        </g>
    </g>
</svg>

<svg width="39" height="40" xmlns="http://www.w3.org/2000/svg"><path d="M21.737 15.094h-4.5v-4.528a.753.753 0 00-.75-.755.753.753 0 00-.75.755v4.528h-4.5a.753.753 0 00-.75.755c0 .417.336.755.75.755h4.5v4.528c0 .417.336.755.75.755s.75-.338.75-.755v-4.528h4.5c.414 0 .75-.338.75-.755a.753.753 0 00-.75-.755z"/><path d="M38.778 38.697L27.634 27.034a15.85 15.85 0 004.603-11.185C32.237 7.11 25.172 0 16.487 0 7.802 0 .737 7.11.737 15.85c0 8.739 7.065 15.848 15.75 15.848 3.813 0 7.311-1.371 10.038-3.647l11.172 11.692a.746.746 0 001.06.021.759.759 0 00.021-1.067zM2.238 15.849c0-7.907 6.392-14.34 14.25-14.34 7.857 0 14.25 6.433 14.25 14.34s-6.393 14.34-14.25 14.34c-7.858 0-14.25-6.433-14.25-14.34z"/></svg>
